**kern	**kern	**dynam
*part1	*part1	*part1
*staff2	*staff1	*
*I"Piano	*	*
*clefG2	*clefG2	*
*k[b-e-a-]	*k[b-e-a-]	*
=1	=1	=1
2.G 2.c 2.g	(4cc 4een 4gg	pp
!	!LO:TX:b:i:t=dolciss.	!
.	4gg 4eeen	.
.	4ee 4ccc	.
=	=	=
*^	*	*
(4g	2.G 2.d	2bn) 2ff 2gg	.
4dd)	.	.	.
4g	.	(4b 4ff 4gg	<
=	=	=	=
*	*	*^	*
4en 4g	2.G 2.c	4gg	2cc	.
4f 4an	.	4ff 4ccc	.	.
4e 4g	.	4gg	4cc	[ mp >
=	=	=	=	=
4d 4f	2G 2g	2gg)	4bn	.
4c 4en	.	.	4cc	]
*v	*v	*	*	*
*	*v	*v	*
4G	(4Bn 4f 4g	.
*clefF4	*	*
=	=	=
*^	*^	*
4En 4G	2.C	4g	2.c	pp <
4F 4An	.	4f 4cc	.	.
4E 4G	.	4c 4g	.	[ p >
=	=	=	=	=
2C 2G	4F	2g)	4Bn	pp
!	!	!LO:TX:b:i:t=rit.	!	!
.	4En	.	4c	]
*v	*v	*	*	*
*	*v	*v	*
4GG 4G	4r	.
=	=	=
2.CC	2.C;< 2.En< 2.G<	.
==	==	==
*-	*-	*-
!!!system-decoration: {(s1,s2)}
!!!RDF**kern: < = below
